public/asset/icon/sun-solid.svg

<svg width="512" height="512" viewBox="0 0 512 512" fill="none" xmlns="http://www.w3.org/2000/svg">
<g clip-path="url(#clip0_303_2144)">
<path d="M256 159.1C202.98 159.1 160.9 202.08 160.9 254.2C160.9 306.32 202.1 351.1 256 351.1C309.9 351.1 351.1 308.12 351.1 256C351.1 203.88 309 159.1 256 159.1ZM509.3 347L446.1 255.1L509.25 164.09C515.582 154.965 510.354 142.35 499.424 140.37L390.424 120.67L370.724 11.6698C368.749 0.739821 356.134 -4.49018 347.004 1.84582L256 65.8898L164.1 2.73582C154.975 -3.59618 142.36 1.62882 140.38 12.5598L121.6 121.6L12.5601 141.3C1.63308 143.2 -3.59592 155.9 2.73608 164.1L65.8901 256L2.74008 347.01C-3.59192 356.135 1.63508 368.75 12.5641 370.73L121.564 390.43L141.264 499.43C143.239 510.36 155.854 515.59 164.984 509.254L256 446.1L347.01 509.25C356.137 515.584 368.76 510.357 370.73 499.428L390.43 390.428L499.43 370.728C510.4 368.8 515.6 356.1 509.3 347ZM256 383.1C185.31 383.1 128.9 325.79 128.9 256C128.9 185.31 186.21 128.9 256 128.9C325.79 128.9 383.1 186.2 383.1 256C383.1 326.7 326.7 383.1 256 383.1Z" fill="white"/>
</g>
<defs>
<clipPath id="clip0_303_2144">
<rect width="512" height="512" fill="white"/>
</clipPath>
</defs>
</svg>

<svg xmlns="http://www.w3.org/2000/svg" viewBox="0 0 512 512"><!--! Font Awesome Pro 6.1.2 by @fontawesome - https://fontawesome.com License - https://fontawesome.com/license (Commercial License) Copyright 2022 Fonticons, Inc. --><path d="M256 159.1c-53.02 0-95.1 42.98-95.1 95.1S202.1 351.1 256 351.1s95.1-42.98 95.1-95.1S309 159.1 256 159.1zM509.3 347L446.1 255.1l63.15-91.01c6.332-9.125 1.104-21.74-9.826-23.72l-109-19.7l-19.7-109c-1.975-10.93-14.59-16.16-23.72-9.824L256 65.89L164.1 2.736c-9.125-6.332-21.74-1.107-23.72 9.824L121.6 121.6L12.56 141.3C1.633 143.2-3.596 155.9 2.736 164.1L65.89 256l-63.15 91.01c-6.332 9.125-1.105 21.74 9.824 23.72l109 19.7l19.7 109c1.975 10.93 14.59 16.16 23.72 9.824L256 446.1l91.01 63.15c9.127 6.334 21.75 1.107 23.72-9.822l19.7-109l109-19.7C510.4 368.8 515.6 356.1 509.3 347zM256 383.1c-70.69 0-127.1-57.31-127.1-127.1c0-70.69 57.31-127.1 127.1-127.1s127.1 57.3 127.1 127.1C383.1 326.7 326.7 383.1 256 383.1z"/></svg>
